src/images/active/economic-investment_icon_active.svg

<svg width="25" height="25" viewBox="0 0 25 25" fill="none" xmlns="http://www.w3.org/2000/svg">
<g clip-path="url(#clip0_20_682)">
<path d="M3.92074 10.2271H1.1367C0.509043 10.2271 0 10.7362 0 11.3638V23.8638C0 24.491 0.509043 25 1.1367 25H3.92074C4.5484 25 5.05692 24.491 5.05692 23.8638V11.3638C5.05692 10.7362 4.5484 10.2271 3.92074 10.2271Z" fill="#1814f3"/>
<path d="M10.5686 13.6356H7.78457C7.15638 13.6356 6.64787 14.1447 6.64787 14.7723V23.8627C6.64787 24.4909 7.15638 24.9994 7.78457 24.9994H10.5686C11.1963 24.9994 11.7048 24.4904 11.7048 23.8627V14.7723C11.7048 14.1447 11.1963 13.6356 10.5686 13.6356Z" fill="#1814f3"/>
<path d="M17.2154 13.6356H14.4314C13.8037 13.6356 13.2952 14.1447 13.2952 14.7723V23.8627C13.2952 24.4909 13.8037 24.9994 14.4314 24.9994H17.2154C17.8436 24.9994 18.3521 24.4904 18.3521 23.8627V14.7723C18.3521 14.1447 17.8436 13.6356 17.2154 13.6356Z" fill="#1814f3"/>
<path d="M23.8633 10.2271H21.0793C20.4516 10.2271 19.9431 10.7362 19.9431 11.3638V23.8638C19.9431 24.4915 20.4516 25 21.0793 25H23.8633C24.491 25 25 24.4904 25 23.8638V11.3638C25 10.7362 24.491 10.2271 23.8633 10.2271Z" fill="#1814f3"/>
<path d="M12.8314 6.84573V8.89148C13.4505 8.85052 14.1032 8.5601 14.1032 7.87871C14.1032 7.17552 13.3878 6.96967 12.8314 6.84573Z" fill="#1814f3"/>
<path d="M11.0521 4.39732C11.0521 4.91434 11.4367 5.21328 12.2117 5.3686V3.51807C11.5074 3.53881 11.0521 3.95264 11.0521 4.39732Z" fill="#1814f3"/>
<path d="M12.5 0C9.05372 0 6.25 2.80426 6.25 6.25C6.25 9.69468 9.05372 12.4989 12.5 12.4989C15.9463 12.4989 18.75 9.69468 18.75 6.25C18.75 2.80426 15.9463 0 12.5 0ZM12.8314 9.94628V10.5862C12.8314 10.7622 12.6963 10.9378 12.5197 10.9378C12.3452 10.9378 12.2117 10.7622 12.2117 10.5862V9.94628C10.4654 9.90372 9.59681 8.86011 9.59681 8.04362C9.59681 7.63138 9.84628 7.39309 10.2367 7.39309C11.3941 7.39309 10.4941 8.81915 12.2117 8.89096V6.73138C10.6798 6.45319 9.75213 5.78138 9.75213 4.63457C9.75213 3.22979 10.9202 2.50532 12.2117 2.46489V1.91383C12.2117 1.73777 12.3452 1.56223 12.5197 1.56223C12.6963 1.56223 12.8314 1.73777 12.8314 1.91383V2.46489C13.6367 2.48617 15.2904 2.99149 15.2904 4.00479C15.2904 4.40745 14.9894 4.64468 14.6378 4.64468C13.9654 4.64468 13.975 3.53989 12.8314 3.51862V5.48191C14.1952 5.77181 15.4032 6.17447 15.4032 7.76596C15.4032 9.15 14.3702 9.85213 12.8314 9.94628Z" fill="#1814f3"/>
</g>
<defs>
<clipPath id="clip0_20_682">
<rect width="25" height="25" fill="white"/>
</clipPath>
</defs>
</svg>

<svg xmlns="http://www.w3.org/2000/svg" width="25" height="25" fill="none"><g fill="#1814f3" clip-path="url(#a)"><path d="M3.92 10.227H1.138c-.628 0-1.137.51-1.137 1.137v12.5C0 24.49.509 25 1.137 25H3.92c.627 0 1.136-.509 1.136-1.136v-12.5c0-.628-.509-1.137-1.136-1.137ZM10.569 13.636H7.785c-.629 0-1.137.509-1.137 1.136v9.09c0 .629.508 1.137 1.137 1.137h2.784c.627 0 1.136-.509 1.136-1.136v-9.09c0-.628-.509-1.137-1.136-1.137ZM17.215 13.636h-2.784c-.627 0-1.136.509-1.136 1.136v9.09c0 .629.509 1.137 1.136 1.137h2.784c.629 0 1.137-.509 1.137-1.136v-9.09c0-.628-.508-1.137-1.137-1.137ZM23.863 10.227H21.08c-.627 0-1.136.51-1.136 1.137v12.5c0 .627.509 1.136 1.136 1.136h2.784c.628 0 1.137-.51 1.137-1.136v-12.5c0-.628-.509-1.137-1.137-1.137ZM12.831 6.846V8.89c.62-.04 1.272-.33 1.272-1.012 0-.703-.715-.91-1.272-1.033ZM11.052 4.397c0 .517.385.816 1.16.972v-1.85c-.705.02-1.16.434-1.16.878Z"/><path d="M12.5 0a6.257 6.257 0 0 0-6.25 6.25 6.257 6.257 0 0 0 6.25 6.249 6.257 6.257 0 0 0 6.25-6.249A6.257 6.257 0 0 0 12.5 0Zm.331 9.946v.64c0 .176-.135.352-.311.352-.175 0-.308-.176-.308-.352v-.64c-1.747-.042-2.615-1.086-2.615-1.902 0-.413.25-.65.64-.65 1.157 0 .257 1.425 1.975 1.497v-2.16c-1.532-.278-2.46-.95-2.46-2.096 0-1.405 1.168-2.13 2.46-2.17v-.551c0-.176.133-.352.308-.352.176 0 .311.176.311.352v.55c.806.022 2.46.527 2.46 1.54 0 .403-.302.64-.653.64-.673 0-.663-1.104-1.807-1.125v1.963c1.364.29 2.572.692 2.572 2.284 0 1.384-1.033 2.086-2.572 2.18Z"/></g><defs><clipPath id="a"><path fill="#fff" d="M0 0h25v25H0z"/></clipPath></defs></svg>
